tools/download-figma-icons/icons/solid/rss-feed.svg

<svg width="24" height="24" viewBox="0 0 24 24" fill="none" xmlns="http://www.w3.org/2000/svg">
<path fill-rule="evenodd" clip-rule="evenodd" d="M3.75 3C3.33525 3 3 3.33525 3 3.75V6C3 6.41475 3.33525 6.75 3.75 6.75C11.1938 6.75 17.25 12.8062 17.25 20.25C17.25 20.6647 17.5852 21 18 21H20.25C20.6647 21 21 20.6647 21 20.25C21 10.7378 13.2622 3 3.75 3ZM3.75 9C3.33525 9 3 9.33525 3 9.75V12C3 12.4148 3.33525 12.75 3.75 12.75C7.8855 12.75 11.25 16.1145 11.25 20.25C11.25 20.6647 11.5852 21 12 21H14.25C14.6648 21 15 20.6647 15 20.25C15 14.0468 9.95325 9 3.75 9ZM3 18.375C3 16.9275 4.1775 15.75 5.625 15.75C7.0725 15.75 8.25 16.9275 8.25 18.375C8.25 19.8225 7.0725 21 5.625 21C4.1775 21 3 19.8225 3 18.375Z" fill="black"/>
</svg>

<svg xmlns="http://www.w3.org/2000/svg" width="24" height="24" fill="none" viewBox="0 0 24 24"><path fill="currentColor" fill-rule="evenodd" d="M3.75 3a.75.75 0 0 0-.75.75V6c0 .415.335.75.75.75 7.444 0 13.5 6.056 13.5 13.5 0 .415.335.75.75.75h2.25a.75.75 0 0 0 .75-.75C21 10.738 13.262 3 3.75 3m0 6a.75.75 0 0 0-.75.75V12c0 .415.335.75.75.75 4.136 0 7.5 3.364 7.5 7.5 0 .415.335.75.75.75h2.25a.75.75 0 0 0 .75-.75C15 14.047 9.953 9 3.75 9M3 18.375a2.63 2.63 0 0 1 2.625-2.625 2.63 2.63 0 0 1 2.625 2.625A2.63 2.63 0 0 1 5.625 21 2.63 2.63 0 0 1 3 18.375" clip-rule="evenodd"/></svg>
